html/app/assets/img/ui/decorative.svg

<svg fill="none" height="858" viewBox="0 0 1525 858" width="1525" xmlns="http://www.w3.org/2000/svg"><path clip-rule="evenodd" d="m1072 329.162c-16.67-136.481 34.14-268.0135 143.73-329.162h24.54c-118.06 53.4437-174.59 186.697-157.36 327.829 1.48 12.092 3.42 24.24 5.81 36.411 14.94-4.027 29.94-8.564 45.01-13.647 128.61-43.379 266.14-132.224 274.43-285.1643 1.57-28.9009-6.13-50.7873-19.75-65.4287h14.19c11.99 16.6952 18.01 39.058 16.54 66.0245-8.69 160.2335-152.51 251.3505-281.89 294.9915-15.5 5.228-30.93 9.886-46.29 14.013 21.23 97.505 70.69 195.875 138.12 277.966 78.34 95.392 180.55 168.331 290.11 192.636l5.37 1.191-2.38 10.739-5.37-1.192c-112.59-24.976-216.79-99.665-296.24-196.392-68.28-83.133-118.57-182.893-140.26-282.169-199.032 50.395-387.698 12.81-586.936-26.881l-.105-.021c-5.619-1.12-11.247-2.241-16.883-3.362-10.501-2.087-21.104-4.269-31.777-6.466-63.171-12.998-128.762-26.495-189.609-23.96-70.627 2.943-134.162 27.478-179.1206 99.847-2.4785 3.99-5.6419 9.94-9.4716 17.144-1.0023 1.886-2.0502 3.857-3.1434 5.902-5.1954 9.716-11.2861 20.831-17.96 31.324-6.6487 10.453-14.0272 20.532-21.8621 28.055-6.9176 6.642-14.83609 11.914-23.4423 12.932v-11.135c4.7478-.968 10.0455-4.183 15.8237-9.731 6.906-6.632 13.7343-15.861 20.1991-26.025 6.4396-10.124 12.3691-20.935 17.5414-30.607 1.0302-1.927 2.0358-3.819 3.0127-5.657l.0007-.002c3.8565-7.256 7.2642-13.668 9.958-18.005 47.3344-76.193 114.6954-101.978 188.0064-105.032 62.322-2.597 129.448 11.229 192.525 24.221h.003l.034.008c10.604 2.184 21.094 4.344 31.427 6.399 5.342 1.062 10.675 2.124 15.997 3.184 200.116 39.857 386.828 77.043 583.532 27.091-2.5-12.653-4.53-25.287-6.06-37.869z" fill="#89cbf5" fill-rule="evenodd"/></svg>

<svg width="1525" height="858" viewBox="0 0 1525 858" fill="none" xmlns="http://www.w3.org/2000/svg">
<path fill-rule="evenodd" clip-rule="evenodd" d="M1072 329.162C1055.33 192.681 1106.14 61.1485 1215.73 0H1240.27C1122.21 53.4437 1065.68 186.697 1082.91 327.829C1084.39 339.921 1086.33 352.069 1088.72 364.24C1103.66 360.213 1118.66 355.676 1133.73 350.593C1262.34 307.214 1399.87 218.369 1408.16 65.4287C1409.73 36.5278 1402.03 14.6414 1388.41 0H1402.6C1414.59 16.6952 1420.61 39.058 1419.14 66.0245C1410.45 226.258 1266.63 317.375 1137.25 361.016C1121.75 366.244 1106.32 370.902 1090.96 375.029C1112.19 472.534 1161.65 570.904 1229.08 652.995C1307.42 748.387 1409.63 821.326 1519.19 845.631L1524.56 846.822L1522.18 857.561L1516.81 856.369C1404.22 831.393 1300.02 756.704 1220.57 659.977C1152.29 576.844 1102 477.084 1080.31 377.808C881.278 428.203 692.612 390.618 493.374 350.927L493.269 350.906C487.65 349.786 482.022 348.665 476.386 347.544C465.885 345.457 455.282 343.275 444.609 341.078C381.438 328.08 315.847 314.583 255 317.118C184.373 320.061 120.838 344.596 75.8794 416.965C73.4009 420.955 70.2375 426.905 66.4078 434.109C65.4055 435.995 64.3576 437.966 63.2644 440.011C58.069 449.727 51.9783 460.842 45.3044 471.335C38.6557 481.788 31.2772 491.867 23.4423 499.39C16.5247 506.032 8.60621 511.304 0 512.322L0 501.187C4.7478 500.219 10.0455 497.004 15.8237 491.456C22.7297 484.824 29.558 475.595 36.0228 465.431C42.4624 455.307 48.3919 444.496 53.5642 434.824C54.5944 432.897 55.6 431.005 56.5769 429.167L56.5776 429.165C60.4341 421.909 63.8418 415.497 66.5356 411.16C113.87 334.967 181.231 309.182 254.542 306.128C316.864 303.531 383.99 317.357 447.067 330.349L447.07 330.349L447.104 330.357C457.708 332.541 468.198 334.701 478.531 336.756C483.873 337.818 489.206 338.88 494.528 339.94C694.644 379.797 881.356 416.983 1078.06 367.031C1075.56 354.378 1073.53 341.744 1072 329.162Z" fill="#89CBF5"/>
</svg>
